X:8
T:Scordiness
R:reel
C:Charlie Sherrit
D:Buddy MacMaster, Cape Breton Tradition
B:A First Collection of Scottish Music (by Charlie Sherrit)
Z:Paul Stewart Cranford (P.S.C.), <http://www.cranfordpub.com>
L:1/8
Q:333
M:C|
K:D
G|TF2 DF ADFA|dfec dAAd|TB2 GB EBGB|(c/d/e) Ac ecAG|
TF2 DF ADFA|dfec dAAd|(B/c/d) GB AdFA|GBAG FDD:|
|:g|f2 df afdf|ABde fddf|Te2 Be gfed|(c/d/e) dB cAAg|
f2 df afdf|ABde fddA|(B/c/d) GB AdFA|GBAG FDD:|
W:Copyrights - estate of Charlie Sherrit (MCPS)
